X:1
T:Manaus, 87.87 D
T:Manaus, 87.87 D
T:C. A. Shaw, 1892
T:Public Domain Courtesy of the Cyber Hymnal™
C:C. A. Shaw, 1892
Z:Public Domain
Z:Courtesy of the Cyber Hymnal™
%%score ( 1 2 ) 3
L:1/8
Q:1/4=95
M:3/4
K:F
V:1 treble 
V:2 treble 
V:3 bass 
V:1
 [FA][FA] | [FA]3 [FA] [Fd][F=B] | [Fc]2 [FA]2 [EB]>[FA] | [EG]3 [EG] [CF][EG] | [FA]4 [FA][FA] | %5
 [FA]3 [FA] [Fd][F=B] | [Fc]2 [FA]2 [Fc][Fd] | [Fc]3 [EB] [FA][EG] | F4 [DB][DB] | %9
 [DB]3 [DB] (3(Bc)[Fd] | [Fc]2 [FA]2 [Fc][Fd] | [Ec]3 [EG] [FA][GB] | [FA]4 [DB][DB] | %13
 [DB]3 [DB] (3(Bc)[Fd] | [Gc]2 [FA]2 [Fc][Fd] | [Fc]3 [EB] [FA][EG] | F4 |] %17
V:2
 x2 | x6 | x6 | x6 | x6 | x6 | x6 | x6 | F4 x2 | x4 F2 | x6 | x6 | x6 | x4 F2 | x6 | x6 | F4 |] %17
V:3
 [F,C][F,C] | [F,C]3 [F,C] [F,B,][F,^G,] | [F,A,]2 [F,C]2 [G,C]>[F,C] | %3
 [C,B,]3 [C,B,] [C,A,][C,C] | [F,C]4 [F,C][F,C] | [F,C]3 [F,C] [F,B,][F,^G,] | %6
 [F,A,]2 [F,C]2 [F,A,][B,,B,] | [C,A,]3 [C,G,] [C,C][C,B,] | [F,A,]4 [B,,B,][B,,B,] | %9
 [B,,B,]3 [B,,B,] (3([D,B,][C,A,])[B,,B,] | [F,A,]2 [F,C]2 [F,A,][B,,B,] | %11
 [C,G,]3 [C,C] [C,C][C,C] | [F,C]4 [B,,B,][B,,B,] | [B,,B,]3 [B,,B,] (3([D,B,][C,A,])[B,,B,] | %14
 [F,A,]2 [F,C]2 [F,A,][B,,B,] | [C,A,]3 [C,G,] [C,C][C,B,] | [F,A,]4 |] %17

